<?xml version="1.0" encoding="UTF-8"?>
<map version="1.10" tiledversion="1.11.2" orientation="orthogonal" renderorder="left-up" width="60" height="34" tilewidth="16" tileheight="16" infinite="0" nextlayerid="14" nextobjectid="62">
 <tileset firstgid="1" source="../../../../Documents/Tiled/Dungeon TileSet.tsx"/>
 <layer id="1" name="Calque de Tuiles 1" width="60" height="34">
  <data encoding="csv">
33,33,33,33,33,33,33,33,33,33,33,33,33,33,33,33,33,33,33,33,33,33,33,33,33,33,33,33,33,33,33,33,33,33,33,33,33,33,33,33,33,33,33,33,33,33,33,33,33,33,33,33,33,33,33,33,33,33,33,33,
33,52,48,48,48,48,48,48,48,48,48,48,48,48,48,48,48,48,48,48,48,48,48,48,48,48,48,48,48,48,48,48,48,48,48,48,48,48,48,48,48,48,48,48,48,48,48,48,48,48,48,48,48,48,48,48,48,48,51,33,
33,34,0,0,0,0,0,0,0,0,0,0,0,0,0,0,0,0,0,0,0,0,0,0,0,0,0,0,0,0,0,0,0,0,0,0,0,0,0,0,0,0,0,0,0,0,0,0,0,0,0,0,0,0,0,0,0,0,32,33,
33,34,0,0,0,0,0,0,0,0,0,0,0,0,0,0,0,0,0,0,0,0,0,0,0,0,0,0,0,0,0,0,0,0,0,0,0,0,0,0,0,0,0,0,0,0,0,0,0,0,0,0,0,0,0,0,0,0,32,33,
33,34,0,0,0,0,0,0,0,0,0,0,0,0,0,0,0,0,0,0,0,0,0,0,0,0,0,0,0,0,0,0,0,0,0,0,0,0,0,0,0,0,0,0,0,0,0,0,0,0,0,0,0,0,0,0,0,0,32,33,
33,34,0,0,0,0,0,0,0,0,0,0,0,0,0,0,0,0,0,0,0,0,0,0,0,0,0,0,0,0,0,0,0,0,0,0,0,0,0,0,0,0,0,0,0,0,0,0,0,0,0,0,0,0,0,0,0,0,32,33,
33,34,0,0,0,0,0,0,0,0,0,0,0,0,0,0,0,0,0,0,0,0,0,0,0,0,0,0,0,0,0,0,0,0,0,0,0,0,0,0,0,0,0,0,0,0,0,0,0,0,0,0,0,0,0,0,0,0,32,33,
33,34,0,0,0,0,0,0,0,0,0,0,0,0,0,0,0,0,0,0,0,0,0,0,0,0,0,0,0,0,0,0,0,0,0,0,0,0,0,0,0,0,0,0,0,0,0,0,0,0,0,0,0,0,0,0,0,0,32,33,
33,34,0,0,0,0,0,0,0,0,0,0,0,0,0,0,0,0,0,0,0,0,0,0,0,0,0,0,0,0,0,0,0,0,0,0,0,0,0,0,0,0,0,0,0,0,0,0,0,0,0,0,0,0,0,0,0,0,32,33,
33,34,0,0,0,0,0,0,0,0,0,0,0,0,0,0,0,0,0,0,0,0,0,0,0,0,0,0,0,0,0,0,0,0,0,0,0,0,0,0,0,0,0,0,0,0,0,0,0,0,0,0,0,0,0,0,0,0,32,33,
33,34,0,0,0,0,0,0,0,0,0,0,0,0,0,0,0,0,0,0,0,0,0,0,0,0,0,0,0,0,0,0,0,0,0,0,0,0,0,0,0,0,0,0,0,0,0,0,0,0,0,0,0,0,0,0,0,0,32,33,
33,34,0,0,0,0,0,0,0,0,0,0,0,0,0,0,0,0,0,0,0,0,0,0,0,0,0,0,0,0,0,0,0,0,0,0,0,0,0,0,0,0,0,0,0,0,0,0,0,0,0,0,0,0,0,0,0,0,32,33,
33,34,0,0,0,0,0,0,0,0,0,0,0,0,0,0,0,0,0,0,0,0,0,0,0,0,0,0,0,0,0,0,0,0,0,0,0,0,0,0,0,0,0,0,0,0,0,0,0,0,0,0,0,0,0,0,0,0,32,33,
33,34,0,0,0,0,0,0,0,0,0,0,0,0,0,0,0,0,0,0,0,0,0,0,0,0,0,0,0,0,0,0,0,0,0,0,0,0,0,0,0,0,0,0,0,0,0,0,0,0,0,0,0,0,0,0,0,0,32,33,
33,34,0,0,0,0,0,0,0,0,0,0,0,0,0,0,0,0,0,0,0,0,0,0,0,0,0,0,0,0,0,0,0,0,0,0,0,0,0,0,0,0,0,0,0,0,0,0,0,0,0,0,0,0,0,0,0,0,32,33,
33,34,0,0,0,0,0,0,0,0,0,0,0,0,0,0,0,0,0,0,0,0,0,0,0,0,0,0,0,0,0,0,0,0,0,0,0,0,0,0,0,0,0,0,0,0,0,0,0,0,0,0,0,0,0,0,0,0,32,33,
33,34,0,0,0,0,0,0,0,0,0,0,0,0,0,0,0,0,0,0,0,0,0,0,0,0,0,0,0,0,0,0,0,0,0,0,0,0,0,0,0,0,0,0,0,0,0,0,0,0,0,0,0,0,0,0,0,0,32,33,
33,37,18,18,18,18,18,19,0,0,0,0,0,0,0,0,0,0,0,0,0,0,0,0,0,0,0,0,0,0,0,0,0,0,0,0,0,0,0,0,0,0,0,0,0,0,0,0,0,0,0,0,0,0,0,0,0,0,32,33,
33,33,33,33,33,33,33,34,0,0,0,0,0,0,0,0,0,0,0,0,0,0,0,0,0,0,0,0,0,0,0,0,0,0,0,0,0,0,0,0,0,0,0,0,0,0,0,0,0,0,0,0,0,0,0,0,0,0,32,33,
33,52,48,48,48,48,48,49,0,0,0,0,0,0,0,0,0,0,0,0,0,0,0,0,0,0,0,0,0,0,0,0,0,0,0,0,0,0,0,0,0,0,0,0,0,0,0,0,0,0,0,0,0,0,0,0,0,0,32,33,
33,34,0,0,0,0,0,0,0,0,0,0,0,0,0,0,0,0,0,0,0,0,0,0,0,0,0,0,0,0,0,0,0,0,0,0,0,0,0,0,0,0,0,0,0,0,0,0,0,0,0,0,0,0,0,0,0,0,32,33,
33,34,0,0,0,0,0,0,0,0,0,0,0,0,0,0,0,0,0,0,0,0,0,0,0,0,0,0,0,0,0,0,0,0,0,0,0,0,0,0,0,0,0,0,0,0,0,0,0,0,0,0,0,0,0,0,0,0,32,33,
33,34,0,0,0,0,0,0,0,0,0,0,0,0,0,0,0,0,0,0,0,0,0,0,0,0,0,0,0,0,0,0,0,0,0,0,0,0,0,0,0,0,0,0,0,0,0,0,0,0,0,0,0,0,0,0,0,0,32,33,
33,37,18,18,18,18,18,18,18,19,0,0,0,0,0,0,0,0,0,0,0,0,0,0,0,0,0,0,0,0,0,0,0,0,0,0,0,0,17,18,18,18,18,18,18,19,0,0,0,0,0,17,18,18,18,18,18,18,36,33,
33,33,33,33,33,33,33,33,33,34,0,0,0,0,0,0,0,0,0,0,0,0,0,0,0,0,0,0,0,0,0,0,0,0,0,0,0,0,32,33,33,33,33,33,33,34,0,0,0,0,0,32,33,33,33,33,33,33,33,33,
48,48,48,48,48,48,48,48,48,34,0,0,0,0,0,0,0,0,0,0,0,0,0,0,0,0,0,0,0,0,0,0,0,0,0,0,0,0,47,48,48,48,48,51,33,34,0,0,0,0,0,32,33,52,48,48,48,48,48,48,
0,0,0,0,0,0,0,0,0,0,0,0,0,0,0,0,0,0,0,0,0,0,0,0,0,0,0,0,0,0,0,0,0,0,0,0,0,0,0,0,0,0,0,32,33,34,0,0,0,0,0,47,48,49,0,0,0,0,0,0,
0,0,0,0,0,0,0,0,0,0,0,0,0,0,0,0,0,0,0,0,0,0,0,0,0,0,0,0,0,0,0,0,0,0,0,0,0,0,0,0,0,0,0,32,33,34,0,0,0,0,0,0,0,0,0,0,0,0,0,0,
0,0,0,0,0,0,0,0,0,0,0,0,0,0,0,0,0,0,0,0,0,0,0,0,0,0,0,0,0,0,0,0,0,0,0,0,0,0,0,0,0,0,0,32,33,34,0,0,0,0,0,17,18,19,0,0,0,0,0,0,
18,18,18,18,18,18,18,18,18,18,18,18,18,18,18,18,18,18,19,212,212,212,212,213,17,18,18,18,19,212,212,212,212,213,17,18,18,18,18,18,18,18,18,36,33,37,18,18,18,18,18,36,33,37,18,18,18,18,18,18,
33,33,33,33,33,33,33,33,33,33,33,33,33,33,33,33,33,93,37,18,18,18,18,18,36,33,33,33,37,18,18,18,18,18,36,33,33,33,33,33,33,33,33,33,33,33,33,33,33,33,33,33,33,33,33,33,33,33,33,33,
33,33,33,33,33,33,33,33,33,33,33,33,33,33,33,33,33,33,33,33,33,33,33,33,33,33,33,33,33,33,33,33,33,33,33,33,33,33,33,33,33,33,33,33,33,33,33,33,33,33,33,33,33,33,33,33,33,33,33,33,
33,33,33,33,33,33,33,33,33,33,33,33,33,33,33,33,33,33,33,33,33,33,33,33,33,33,33,33,33,33,33,33,33,33,33,33,33,33,33,33,33,33,33,33,33,33,33,33,33,33,33,33,33,33,33,33,33,33,33,33,
33,33,33,33,33,33,33,33,33,33,33,33,33,33,33,33,33,33,33,33,33,33,33,33,33,33,33,33,33,33,33,33,33,33,33,33,33,33,33,33,33,33,33,33,33,33,33,33,33,33,33,33,33,33,33,33,33,33,33,33
</data>
 </layer>
 <objectgroup id="2" name="Collisions">
  <object id="36" x="-0.000868056" y="479.991" width="960" height="64.0112"/>
  <object id="37" x="-48.0009" y="367.99" width="208.003" height="47.9943"/>
  <object id="38" x="-0.000868056" y="32.1068" width="31.9982" height="335.879"/>
  <object id="39" x="927.99" y="32.0691" width="80.0086" height="383.919"/>
  <object id="40" x="-0.00664252" y="-0.0226399" width="960.008" height="32.006"/>
  <object id="41" x="815.991" y="367.986" width="111.996" height="48.0023"/>
  <object id="42" x="815.999" y="415.99" width="48" height="16.0003"/>
  <object id="43" x="31.9863" y="271.987" width="96.0161" height="47.9894"/>
  <object id="44" x="687.991" y="367.981" width="48.0234" height="96.0039"/>
  <object id="45" x="816.006" y="447.978" width="48" height="15.9964"/>
  <object id="46" x="543.994" y="463.992" width="464.005" height="15.9964"/>
  <object id="47" x="-48.0009" y="463.986" width="352" height="16"/>
  <object id="48" x="383.999" y="463.986" width="80" height="16"/>
  <object id="59" x="608" y="368" width="80" height="48"/>
 </objectgroup>
 <objectgroup id="3" name="Kill_Zone">
  <object id="60" x="304" y="473.727" width="80" height="6.27273"/>
  <object id="61" x="464" y="473.818" width="80" height="6.18182"/>
 </objectgroup>
 <objectgroup id="6" name="Portals" class="Portals">
  <properties>
   <property name="SceneId" value="LevelTestScene"/>
  </properties>
  <object id="16" type="Portals" x="64" y="240">
   <properties>
    <property name="SceneId" value="LevelTestScene"/>
   </properties>
   <point/>
  </object>
 </objectgroup>
 <objectgroup id="5" name="Collectibles">
  <object id="18" type="Collectibles" x="64.0162" y="344.986">
   <point/>
  </object>
  <object id="58" type="Collectibles" x="656" y="440.75">
   <point/>
  </object>
 </objectgroup>
 <objectgroup id="9" name="Button">
  <object id="19" type="Button" x="896" y="464">
   <properties>
    <property name="Tag" value="b2"/>
   </properties>
   <point/>
  </object>
  <object id="52" type="Button" x="776" y="463.87">
   <properties>
    <property name="Tag" value="b1"/>
   </properties>
   <point/>
  </object>
 </objectgroup>
 <objectgroup id="13" name="SpiritBarrier">
  <object id="21" type="SpiritBarrier" x="736" y="384" width="80" height="16">
   <properties>
    <property name="Tag" value="SPIRITBARRIER_TO_SWIPE"/>
   </properties>
  </object>
  <object id="56" type="SpiritBarrier" x="96" y="320" width="16" height="48">
   <properties>
    <property name="Tag" value=""/>
   </properties>
  </object>
  <object id="57" type="SpiritBarrier" x="608" y="416" width="16" height="48">
   <properties>
    <property name="Tag" value=""/>
   </properties>
  </object>
 </objectgroup>
 <objectgroup id="12" name="PlayerBarrier">
  <object id="12" type="PlayerBarrier" x="736" y="384" width="80" height="16">
   <properties>
    <property name="Tag" value="PLAYERBARRIER_TO_SWIPE"/>
   </properties>
  </object>
  <object id="55" type="PlayerBarrier" x="128" y="416" width="16" height="48">
   <properties>
    <property name="Tag" value="BARRIER_TO_DESTROY"/>
   </properties>
  </object>
 </objectgroup>
 <objectgroup id="11" name="DummyWall">
  <object id="53" type="DummyWall" x="-48" y="400" width="80" height="80">
   <properties>
    <property name="Direction" value="Left"/>
   </properties>
  </object>
  <object id="54" type="DummyWall" x="928" y="400" width="80" height="80">
   <properties>
    <property name="Direction" value="Right"/>
   </properties>
  </object>
 </objectgroup>
 <objectgroup id="10" name="Crate">
  <object id="20" type="Crate" x="848" y="352">
   <point/>
  </object>
 </objectgroup>
 <objectgroup id="7" name="Text"/>
 <objectgroup id="4" name="PlayerSpawn">
  <object id="15" type="PlayerSpawn" x="80" y="432">
   <point/>
  </object>
 </objectgroup>
</map>
